X: 3221
T: General McKays Reel.
C: Daniel Dow.
%R: reel
B: Niel Gow & Sons "Complete Repository" v.3 p.22 #1
Z: 2021 John Chambers <jc:trillian.mit.edu>
M: C|
L: 1/8
K: C
% - - - - - - - - - -
V: 1 staves=2
e |\
cC-C>E G3~_B | AF EC DF_B,D | (C/D/E/F/) GE G2c>G | AaTg>f ecc :| e | (c/d/e/f/) gc acgc | ecge fdde |
(c/d/e/f/) gc acgc | ecgc (Gc-c)>e || (c/d/e/f/) gc acgc | fdec TB>cd(f | e)>c GE FAG_B | AaTg>f ecc |]
% - - - - - - - - - -
V: 2 clef=bass middle=d
z | c2c2  e2e2 | f2c2 _B2B2 | c2c2 e2e2 | f2g2 c2c :| z | c2e2 f2e2 | c2e2 g2G2 |
c2e2 f2e2 | g2G2 c2c2 || c2e2 f2e2 | B2c2 G2g2 | c'2c2 f2e2 | f2g2 c2c |]


